!! 00000] TT[WS
!!!OTL: Zhu ashiza
!!!ARE: Asia, China, Shanxi Lishi
!! Ethnic Group: Han
!! WII, 236 (1)
!!!SCT: J0755
!!!YEM: Copyright 1995, estate of Helmut Schaffrath.
**kern
*ICvox
*Ivox
*M2/4
*k[b-]
*F:
{8g
8a
8cc
8dd
=1
8cc
8a
4g
=2
8cc
8dd
8cc
8a
=3
2g}
=4
{8cc
8dd
4ff
=5
8ff
8dd
4cc
=6
8dd
8ff
8cc
8a
=7
2g}
=8
{8g
8a
4cc
=9
8a
4ff
8a
=10
8a
8cc
8a
8g
=11
2f}
=12
{8f
8d
4c
=13
16a
16cc
16a
16g
4f
=14
8.g
16a
8f
8d
=15
2c}
=16
{8.f
16g
8a
8cc
=17
4.g
8a
=18
8.cc
16ff
8dd
8cc
=19
2f}
=20
{8f
8d
4c
=21
8a
8g
4f
=22
8a
8g
8f
8d
=23
2c}
==
!!!AGN: Xiaodiao. XÅshi, Xinminge
!!!ONB: ESAC (Essen Associative Code) Database: CHINA
!!!AMT: simple duple
!!!AIN: vox
!!!EED: Helmut Schaffrath
!!!EEV: 1.0
*-
